COLOR/mimes 16/16/application-apk.svg

<svg height="16" viewBox="0 0 4.233125 4.233125" width="16" xmlns="http://www.w3.org/2000/svg" xmlns:xlink="http://www.w3.org/1999/xlink"><linearGradient id="a" gradientUnits="userSpaceOnUse" x1="328" x2="328" y1="237" y2="251"><stop offset="0" stop-color="#fff"/><stop offset=".125" stop-color="#fff" stop-opacity=".098039"/><stop offset=".92500001" stop-color="#fff" stop-opacity=".098039"/><stop offset="1" stop-color="#fff" stop-opacity=".498039"/></linearGradient><clipPath id="b"><path d="m325.09646 237c-2.80769 0-3.10979.28839-3.09603 3.10176v3.89824 3.89824c-.0138 2.81337.28834 3.10176 3.09603 3.10176h5.8075c2.8077 0 3.09604-.28835 3.09604-3.10176v-3.89824-3.89824c0-2.8134-.28835-3.10176-3.09604-3.10176z"/></clipPath><linearGradient id="c" gradientTransform="matrix(0 -.00953618 -.00953591 0 5.176271 4.473644)" gradientUnits="userSpaceOnUse" x1="459.03448" x2="35.310345" y1="419.23337" y2="207.36522"><stop offset="0" stop-color="#76c22b"/><stop offset="1" stop-color="#a6d74f"/></linearGradient><path d="m2.8849672.13228554c.187972 0 .3369145.004074.463514.0253194.1265996.021245.2372429.0627772.3193443.14468821.082102.0819083.1236232.1921045.1446883.31882839.02106.12672124.024684.27608441.023758.46454836v1.0308929 1.0314115c.0007937.188165-.00273.3374488-.023758.4640299-.02106.1267238-.062584.23692-.1446883.3188284-.082104.081911-.1927421.1234352-.3193443.1446882-.1266022.021245-.275542.025319-.463514.025319h-1.5367831c-.1879719 0-.3366287-.00405-.46299804-.025319-.12636672-.0212715-.23701267-.0627376-.31882839-.1446882-.08180779-.0819507-.12294318-.1922924-.14416966-.3188284-.02121854-.1265334-.02531938-.275685-.02531938-.4640299v-1.0314115-1.0314115c0-.18834487.004101-.33749638.0253194-.46402978.0212185-.12653604.0623592-.23687774.14416964-.31882839.0818157-.0819507.19246167-.12342205.31882839-.14468821.12636934-.0212715.27502614-.0253194.46299804-.0253194z" fill="url(#c)"/><path d="m1.8521244 1.3228519v.7275683c.0000027.036643.0295.066143.066143.066143h.3968555c.036643 0 .066143-.0295.066143-.066143v-.7275683zm.1322852.3968554h.2645703v.2645703h-.2645703z" opacity=".2"/><path d="m2.1166974.26457069v.26457031h.2645703v-.26457031zm0 .26457031h-.2645703v.26457032h.2645703zm0 .26457032v.26457018h.2645703v-.26457018z" opacity=".2"/><path d="m1.8521244 1.0582815v.7275684c.0000027.036643.0295.066143.066143.066143h.3968555c.036643 0 .066143-.0295.066143-.066143v-.7275684zm.1322852.3968555h.2645703v.2645703h-.2645703z" fill="#fff"/><path d="m2.1166974.26457069h-.2645703v.26457031h.2645703zm0 .26457031v.26457032h.2645703v-.26457032z" fill="#fff"/><path d="m2.739316 2.5857333.2292952-.2292925c.035275-.035278.035275-.089954 0-.1252317-.035275-.035275-.089954-.035275-.1252291 0l-.2610436.2610435c-.1393413-.0705529-.2980835-.1111195-.4656438-.1111195-.169325 0-.3280672.040567-.4691705.1111195l-.2628082-.2610435c-.035275-.035275-.089954-.035275-.1252291 0-.035275.035278-.035275.089954 0 .1252317l.2310572.2310572c-.261041.1922553-.4321306.5009189-.4321306.8519164h2.1165625c0-.3509975-.1710897-.6614258-.43566-.8536811zm-.9753808.5009215h-.1763811v-.1763811h.1763811zm.8819001 0h-.176381v-.1763811h.176381z" fill="#0c2809" opacity=".5" stroke-width=".17638"/><g fill="none"><path d="m1.3483032.13228554c-.187972 0-.3369145.004074-.463514.0253194-.12659954.021245-.23724284.0627772-.3193443.14468821-.0821015.0819083-.12362312.1921045-.14468821.31882839-.0210598.12672124-.0246844.27608441-.0237584.46454836v1.0308929 1.0314115c-.00079371.188165.002725.3374488.0237584.4640299.0210598.1267238.0625841.23692.14468821.3188284.0821041.081911.19274212.1234352.3193443.1446882.1266022.021245.275542.025319.463514.025319h1.5367831c.1879719 0 .3366287-.00405.4629981-.025319.1263667-.0212715.2370126-.0627376.3188284-.1446882.0818078-.0819507.1229431-.1922924.1441696-.3188284.0212186-.1265334.0253194-.275685.0253194-.4640299v-1.0314115-1.0314115c0-.18834487-.0041-.33749638-.025319-.46402978-.0212189-.12653604-.0623596-.23687774-.14417-.31882839-.0818158-.08195066-.1924617-.12342205-.3188284-.14468821-.1263694-.02127146-.2750262-.02531938-.4629981-.02531938z" opacity=".4" stroke="#000" stroke-width=".26457"/><path clip-path="url(#b)" d="m325.09646 237c-2.80769 0-3.10979.28839-3.09603 3.10176v3.89824 3.89824c-.0138 2.81337.28834 3.10176 3.09603 3.10176h5.8075c2.8077 0 3.09604-.28835 3.09604-3.10176v-3.89824-3.89824c0-2.8134-.28835-3.10176-3.09604-3.10176z" opacity=".4" stroke="url(#a)" stroke-width="2" transform="matrix(.26457031 0 0 .26457031 -84.662368 -62.438593)"/></g></svg>

<?xml version="1.0" encoding="UTF-8" standalone="no"?>
<svg
   xmlns:dc="http://purl.org/dc/elements/1.1/"
   xmlns:cc="http://creativecommons.org/ns#"
   xmlns:rdf="http://www.w3.org/1999/02/22-rdf-syntax-ns#"
   xmlns:svg="http://www.w3.org/2000/svg"
   xmlns="http://www.w3.org/2000/svg"
   xmlns:xlink="http://www.w3.org/1999/xlink"
   xmlns:sodipodi="http://sodipodi.sourceforge.net/DTD/sodipodi-0.dtd"
   xmlns:inkscape="http://www.inkscape.org/namespaces/inkscape"
   width="16"
   height="16"
   version="1.1"
   viewBox="0 0 4.233125 4.233125"
   id="svg47"
   sodipodi:docname="application-apk.svg"
   inkscape:version="0.92.4 (5da689c313, 2019-01-14)">
  <metadata
     id="metadata51">
    <rdf:RDF>
      <cc:Work
         rdf:about="">
        <dc:format>image/svg+xml</dc:format>
        <dc:type
           rdf:resource="http://purl.org/dc/dcmitype/StillImage" />
        <dc:title></dc:title>
      </cc:Work>
    </rdf:RDF>
  </metadata>
  <sodipodi:namedview
     pagecolor="#ffffff"
     bordercolor="#666666"
     borderopacity="1"
     objecttolerance="10"
     gridtolerance="10"
     guidetolerance="10"
     inkscape:pageopacity="0"
     inkscape:pageshadow="2"
     inkscape:window-width="1241"
     inkscape:window-height="831"
     id="namedview49"
     showgrid="false"
     inkscape:zoom="40.875"
     inkscape:cx="8"
     inkscape:cy="8"
     inkscape:window-x="0"
     inkscape:window-y="27"
     inkscape:window-maximized="0"
     inkscape:current-layer="svg47" />
  <defs
     id="defs17">
    <linearGradient
       id="linearGradient4226"
       x1="529.65503"
       x2="-35.310001"
       y1="401.58401"
       y2="119.093"
       gradientTransform="matrix(0,-0.11988932,-0.11988589,0,67.016455,292.54831)"
       gradientUnits="userSpaceOnUse">
      <stop
         style="stop-color:#76c22b"
         offset="0"
         id="stop2" />
      <stop
         style="stop-color:#a6d74f"
         offset="1"
         id="stop4" />
    </linearGradient>
    <linearGradient
       id="linearGradient4358"
       x1="88"
       x2="488"
       y1="88"
       y2="488"
       gradientUnits="userSpaceOnUse">
      <stop
         style="stop-color:#000000;stop-opacity:.58823532"
         offset="0"
         id="stop7" />
      <stop
         style="stop-color:#000000;stop-opacity:0"
         offset=".88"
         id="stop9" />
      <stop
         style="stop-color:#000000"
         offset="1"
         id="stop11" />
    </linearGradient>
    <filter
       id="filter4346"
       width="1.026"
       height="1.022"
       x="-0.0099999998"
       y="-0.0099999998"
       style="color-interpolation-filters:sRGB">
      <feGaussianBlur
         stdDeviation="2.12"
         id="feGaussianBlur14" />
    </filter>
    <linearGradient
       inkscape:collect="always"
       xlink:href="#linearGradient927"
       id="linearGradient993"
       x1="328"
       y1="237"
       x2="328"
       y2="251"
       gradientUnits="userSpaceOnUse" />
    <linearGradient
       inkscape:collect="always"
       id="linearGradient927">
      <stop
         style="stop-color:#ffffff;stop-opacity:1;"
         offset="0"
         id="stop923" />
      <stop
         id="stop933"
         offset="0.125"
         style="stop-color:#ffffff;stop-opacity:0.09803922" />
      <stop
         id="stop931"
         offset="0.92500001"
         style="stop-color:#ffffff;stop-opacity:0.09803922" />
      <stop
         style="stop-color:#ffffff;stop-opacity:0.49803922"
         offset="1"
         id="stop925" />
    </linearGradient>
    <clipPath
       clipPathUnits="userSpaceOnUse"
       id="clipPath983">
      <path
         sodipodi:nodetypes="scccssscsss"
         inkscape:connector-curvature="0"
         id="path985"
         d="m 325.09646,237 c -2.80769,0 -3.10979,0.28839 -3.09603,3.10176 V 244 v 3.89824 c -0.0138,2.81337 0.28834,3.10176 3.09603,3.10176 h 5.8075 C 333.71166,251 334,250.71165 334,247.89824 V 244 240.10176 C 334,237.28836 333.71165,237 330.90396,237 Z"
         style="color:#000000;display:inline;overflow:visible;visibility:visible;opacity:1;fill:#46a926;fill-opacity:1;fill-rule:nonzero;stroke:none;stroke-width:2;stroke-miterlimit:4;stroke-dasharray:none;stroke-opacity:1;marker:none;enable-background:accumulate" />
    </clipPath>
    <linearGradient
       inkscape:collect="always"
       xlink:href="#linearGradient4338"
       id="linearGradient920"
       gradientUnits="userSpaceOnUse"
       gradientTransform="matrix(0,-0.00953618,-0.00953591,0,5.1762705,4.4736435)"
       x1="459.03448"
       y1="419.23337"
       x2="35.310345"
       y2="207.36522" />
    <linearGradient
       inkscape:collect="always"
       id="linearGradient4338">
      <stop
         style="stop-color:#76c22b;stop-opacity:1"
         offset="0"
         id="stop4340" />
      <stop
         style="stop-color:#a6d74f;stop-opacity:1"
         offset="1"
         id="stop4342" />
    </linearGradient>
  </defs>
  <path
     style="color:#000000;display:inline;overflow:visible;visibility:visible;fill:url(#linearGradient920);fill-opacity:1;fill-rule:nonzero;stroke:none;stroke-width:0.26457033;marker:none;enable-background:accumulate"
     d="m 2.8849672,0.13228554 c 0.187972,0 0.3369145,0.004074 0.463514,0.0253194 0.1265996,0.021245 0.2372429,0.0627772 0.3193443,0.14468821 0.082102,0.0819083 0.1236232,0.1921045 0.1446883,0.31882839 0.02106,0.12672124 0.024684,0.27608441 0.023758,0.46454836 v 1.0308929 1.0314115 c 7.937e-4,0.188165 -0.00273,0.3374488 -0.023758,0.4640299 -0.02106,0.1267238 -0.062584,0.23692 -0.1446883,0.3188284 -0.082104,0.081911 -0.1927421,0.1234352 -0.3193443,0.1446882 -0.1266022,0.021245 -0.275542,0.025319 -0.463514,0.025319 H 1.3481841 c -0.1879719,0 -0.3366287,-0.00405 -0.46299804,-0.025319 C 0.75881934,4.0542493 0.64817339,4.0127832 0.56635767,3.9308326 0.48454988,3.8488819 0.44341449,3.7385402 0.42218801,3.6120042 0.40096947,3.4854708 0.39686863,3.3363192 0.39686863,3.1479743 V 2.1165628 1.0851513 c 0,-0.18834487 0.004101,-0.33749638 0.0253194,-0.46402978 C 0.44340653,0.49458548 0.48454723,0.38424378 0.56635767,0.30229313 0.64817337,0.22034243 0.75881934,0.17887108 0.88518606,0.15760492 1.0115554,0.13633342 1.1602122,0.13228552 1.3481841,0.13228552 Z"
     id="path918"
     inkscape:connector-curvature="0" />
  <path
     inkscape:connector-curvature="0"
     style="color:#000000;display:inline;overflow:visible;visibility:visible;opacity:0.2;fill:#000000;fill-opacity:1;fill-rule:nonzero;stroke:none;stroke-width:3.96855497;stroke-linecap:butt;stroke-linejoin:miter;stroke-miterlimit:4;stroke-dasharray:none;stroke-dashoffset:0;stroke-opacity:1;marker:none;enable-background:accumulate"
     d="m 1.8521244,1.3228519 v 0.7275683 c 2.7e-6,0.036643 0.0295,0.066143 0.066143,0.066143 h 0.3968555 c 0.036643,0 0.066143,-0.0295 0.066143,-0.066143 V 1.3228519 Z M 1.9844096,1.7197073 H 2.2489799 V 1.9842776 H 1.9844096 Z"
     id="path932"
     sodipodi:nodetypes="cssssccccccc" />
  <path
     id="path934"
     d="M 2.1166974,0.26457069 V 0.529141 H 2.3812677 V 0.26457069 Z m 0,0.26457031 H 1.8521271 v 0.26457032 h 0.2645703 z m 0,0.26457032 V 1.0582815 H 2.3812677 V 0.79371132 Z"
     style="color:#000000;display:inline;overflow:visible;visibility:visible;opacity:0.2;fill:#000000;fill-opacity:1;fill-rule:nonzero;stroke:none;stroke-width:3.96855497;stroke-linecap:butt;stroke-linejoin:miter;stroke-miterlimit:4;stroke-dasharray:none;stroke-dashoffset:0;stroke-opacity:1;marker:none;enable-background:accumulate"
     inkscape:connector-curvature="0"
     sodipodi:nodetypes="ccccccccccccccc" />
  <path
     sodipodi:nodetypes="cssssccccccc"
     id="path1004"
     d="m 1.8521244,1.0582815 v 0.7275684 c 2.7e-6,0.036643 0.0295,0.066143 0.066143,0.066143 h 0.3968555 c 0.036643,0 0.066143,-0.0295 0.066143,-0.066143 V 1.0582815 Z M 1.9844096,1.455137 H 2.2489799 V 1.7197073 H 1.9844096 Z"
     style="color:#000000;display:inline;overflow:visible;visibility:visible;opacity:1;fill:#ffffff;fill-opacity:1;fill-rule:nonzero;stroke:none;stroke-width:3.96855497;stroke-linecap:butt;stroke-linejoin:miter;stroke-miterlimit:4;stroke-dasharray:none;stroke-dashoffset:0;stroke-opacity:1;marker:none;enable-background:accumulate"
     inkscape:connector-curvature="0" />
  <path
     sodipodi:nodetypes="cccccccccc"
     inkscape:connector-curvature="0"
     style="color:#000000;display:inline;overflow:visible;visibility:visible;opacity:1;fill:#ffffff;fill-opacity:1;fill-rule:nonzero;stroke:none;stroke-width:3.96855497;stroke-linecap:butt;stroke-linejoin:miter;stroke-miterlimit:4;stroke-dasharray:none;stroke-dashoffset:0;stroke-opacity:1;marker:none;enable-background:accumulate"
     d="M 2.1166974,0.26457069 H 1.8521271 V 0.529141 h 0.2645703 z m 0,0.26457031 V 0.79371132 H 2.3812677 V 0.529141 Z"
     id="path1008" />
  <path
     sodipodi:nodetypes="cssscsccsscccccccccccccc"
     inkscape:connector-curvature="0"
     id="path992"
     d="M 2.739316,2.5857333 2.9686112,2.3564408 c 0.035275,-0.035278 0.035275,-0.089954 0,-0.1252317 -0.035275,-0.035275 -0.089954,-0.035275 -0.1252291,0 L 2.5823385,2.4922526 C 2.4429972,2.4216997 2.284255,2.3811331 2.1166947,2.3811331 c -0.169325,0 -0.3280672,0.040567 -0.4691705,0.1111195 L 1.384716,2.2312091 c -0.035275,-0.035275 -0.089954,-0.035275 -0.1252291,0 -0.035275,0.035278 -0.035275,0.089954 0,0.1252317 L 1.4905441,2.587498 C 1.2295031,2.7797533 1.0584135,3.0884169 1.0584135,3.4394144 H 3.174976 c 0,-0.3509975 -0.1710897,-0.6614258 -0.43566,-0.8536811 z M 1.7639352,3.0866548 H 1.5875541 V 2.9102737 h 0.1763811 z m 0.8819001,0 H 2.4694543 V 2.9102737 h 0.176381 z"
     style="display:inline;opacity:0.5;fill:#0c2809;fill-opacity:1;stroke-width:0.17638022;enable-background:new" />
  <path
     id="path1087"
     d="m 1.3483032,0.13228554 c -0.187972,0 -0.3369145,0.004074 -0.463514,0.0253194 -0.12659954,0.021245 -0.23724284,0.0627772 -0.3193443,0.14468821 -0.0821015,0.0819083 -0.12362312,0.1921045 -0.14468821,0.31882839 -0.0210598,0.12672124 -0.0246844,0.27608441 -0.0237584,0.46454836 v 1.0308929 1.0314115 c -7.9371e-4,0.188165 0.002725,0.3374488 0.0237584,0.4640299 0.0210598,0.1267238 0.0625841,0.23692 0.14468821,0.3188284 0.0821041,0.081911 0.19274212,0.1234352 0.3193443,0.1446882 0.1266022,0.021245 0.275542,0.025319 0.463514,0.025319 h 1.5367831 c 0.1879719,0 0.3366287,-0.00405 0.4629981,-0.025319 C 3.4744511,4.0542493 3.585097,4.0127832 3.6669128,3.9308326 3.7487206,3.8488819 3.7898559,3.7385402 3.8110824,3.6120042 3.832301,3.4854708 3.8364018,3.3363192 3.8364018,3.1479743 V 2.1165628 1.0851513 c 0,-0.18834487 -0.0041,-0.33749638 -0.025319,-0.46402978 C 3.7898639,0.49458548 3.7487232,0.38424378 3.6669128,0.30229313 3.585097,0.22034247 3.4744511,0.17887108 3.3480844,0.15760492 3.221715,0.13633346 3.0730582,0.13228554 2.8850863,0.13228554 Z"
     style="color:#000000;display:inline;overflow:visible;visibility:visible;opacity:0.4;fill:none;fill-opacity:1;fill-rule:nonzero;stroke:#000000;stroke-width:0.26457033;stroke-opacity:1;marker:none;enable-background:accumulate"
     inkscape:connector-curvature="0" />
  <path
     transform="matrix(0.26457031,0,0,0.26457031,-84.662368,-62.438593)"
     style="color:#000000;display:inline;overflow:visible;visibility:visible;opacity:0.4;fill:none;fill-opacity:1;fill-rule:nonzero;stroke:url(#linearGradient993);stroke-width:2;stroke-miterlimit:4;stroke-dasharray:none;stroke-opacity:1;marker:none;enable-background:accumulate"
     d="m 325.09646,237 c -2.80769,0 -3.10979,0.28839 -3.09603,3.10176 V 244 v 3.89824 c -0.0138,2.81337 0.28834,3.10176 3.09603,3.10176 h 5.8075 C 333.71166,251 334,250.71165 334,247.89824 V 244 240.10176 C 334,237.28836 333.71165,237 330.90396,237 Z"
     id="path937"
     inkscape:connector-curvature="0"
     sodipodi:nodetypes="scccssscsss"
     clip-path="url(#clipPath983)" />
</svg>
